X: 39286
T: Takaka Rain
R: jig
M: 6/8
K: Eminor
ABe BAG|GEB AGE|A2z AGE|z (3AAA AGE|
^ABe B=AG|GEB AGE|e2B deg|A3 AGE|
ABe BAG|GEB AGE|A2z AGE|z (3AAG ABd|
e2B deg-|ged edB|ADE GEB|BBB ^ABB||
^ABe B=AG|GEB AGE|A2z AGE|z (3AAA AGE|
^ABe B=AG|GEB AGE|e3- e2g|f2g edc|
ABe BAG|GEB AGE|AAA AAA|AAA AGE|
ABe def|g3 edB|AGE DEE|FGG ABc||
[|.d3 ~B3|(d<e)d AGB|A2B ~E3|GAG EDB|
ded ~B3|edB (3deg e|a2b gfe|def g3|
zab age|dgd edB|e2d AGE|DEG ABc|
d3 F3|A6|G6|z3 ABc||
d3 ~B3|(d<e)d AGB|~A3 ~E3|(G<A)G EDB|
ded ~B3|edB (3deg e|~a3 gfe|def g z d|
b3 age|dgd edB|e2d AGE|DEG ABc|
d2 F-F3|-F3 AG2|G6|"D.C."z6||

